src/apps/scalable/rider.svg

<svg width="64" height="64" version="1.1" viewBox="0 0 16.933 16.933" xmlns="http://www.w3.org/2000/svg">
 <defs>
  <filter id="h" x="-.06" y="-.06" width="1.12" height="1.12" color-interpolation-filters="sRGB">
   <feGaussianBlur stdDeviation="0.85"/>
  </filter>
  <linearGradient id="g" x1="32" x2="32" y1="15" y2="49" gradientTransform="scale(.26458)" gradientUnits="userSpaceOnUse">
   <stop stop-color="#303030" offset="0"/>
   <stop stop-color="#424242" offset="1"/>
  </linearGradient>
  <linearGradient id="linearGradient862-3" x1="7.9373" x2="7.9373" y1="15.081" y2="1.852" gradientTransform="matrix(.99996 0 0 .99996 3.7873e-5 .0083453)" gradientUnits="userSpaceOnUse">
   <stop stop-color="#d42b92" offset="0"/>
   <stop stop-color="#f66" offset="1"/>
  </linearGradient>
 </defs>
 <g shape-rendering="auto">
  <path d="m4.3693 0.52916c-2.1142 0-3.8402 1.7835-3.8402 3.9682v8.4675c0 2.1846 1.726 3.9682 3.8402 3.9682h8.1944c2.1142 0 3.8402-1.7835 3.8402-3.9682v-8.4675c0-2.1846-1.726-3.9682-3.8402-3.9682zm0.25704 0.52089h7.6808c1.8443 0 3.3291 1.5342 3.3291 3.44v7.9368c0 1.9058-1.4847 3.44-3.3291 3.44h-7.6808c-1.8443 0-3.3291-1.5342-3.3291-3.44v-7.9368c0-1.9058 1.4847-3.44 3.3291-3.44z" color="#000000" color-rendering="auto" dominant-baseline="auto" image-rendering="auto" opacity=".01" solid-color="#000000" stop-color="#000000" style="font-feature-settings:normal;font-variant-alternates:normal;font-variant-caps:normal;font-variant-east-asian:normal;font-variant-ligatures:normal;font-variant-numeric:normal;font-variant-position:normal;font-variation-settings:normal;inline-size:0;isolation:auto;mix-blend-mode:normal;shape-margin:0;shape-padding:0;text-decoration-color:#000000;text-decoration-line:none;text-decoration-style:solid;text-indent:0;text-orientation:mixed;text-transform:none;white-space:normal"/>
  <path d="m4.3587 0.79373c-1.9668 0-3.5639 1.6528-3.5639 3.6876v8.4996c0 2.0348 1.5971 3.6876 3.5639 3.6876h8.2162c1.9668 0 3.5644-1.6528 3.5644-3.6876v-8.4996c0-2.0348-1.5976-3.6876-3.5644-3.6876zm0.27222 0.25631h7.6718c1.8422 0 3.3251 1.5342 3.3251 3.44v7.9368c0 1.9058-1.483 3.44-3.3251 3.44h-7.6718c-1.8422 0-3.3251-1.5342-3.3251-3.44v-7.9368c0-1.9058 1.483-3.44 3.3251-3.44z" color="#000000" color-rendering="auto" dominant-baseline="auto" image-rendering="auto" opacity=".01" solid-color="#000000" stop-color="#000000" style="font-feature-settings:normal;font-variant-alternates:normal;font-variant-caps:normal;font-variant-east-asian:normal;font-variant-ligatures:normal;font-variant-numeric:normal;font-variant-position:normal;font-variation-settings:normal;inline-size:0;isolation:auto;mix-blend-mode:normal;shape-margin:0;shape-padding:0;text-decoration-color:#000000;text-decoration-line:none;text-decoration-style:solid;text-indent:0;text-orientation:mixed;text-transform:none;white-space:normal"/>
  <g>
   <path d="m4.3097 1.0583c-1.8657 0-3.3751 1.5383-3.3751 3.439v8.4675c0 1.9007 1.57 3.439 3.4357 3.439h8.1996c1.8657 0 3.4274-1.5383 3.4274-3.439v-8.4675c0-1.9007-1.51-3.439-3.3756-3.439h-0.09688c1.794 0.086515 3.2138 1.5819 3.2138 3.4318v7.9368c0 1.9058-1.5059 3.44-3.3766 3.44h-7.7905c-1.8707 0-3.3766-1.5342-3.3766-3.44v-7.9368c0-1.8498 1.4199-3.3451 3.2138-3.4318z" color="#000000" color-rendering="auto" dominant-baseline="auto" image-rendering="auto" opacity=".03" solid-color="#000000" stop-color="#000000" style="font-feature-settings:normal;font-variant-alternates:normal;font-variant-caps:normal;font-variant-east-asian:normal;font-variant-ligatures:normal;font-variant-numeric:normal;font-variant-position:normal;font-variation-settings:normal;inline-size:0;isolation:auto;mix-blend-mode:normal;shape-margin:0;shape-padding:0;text-decoration-color:#000000;text-decoration-line:none;text-decoration-style:solid;text-indent:0;text-orientation:mixed;text-transform:none;white-space:normal"/>
   <path transform="scale(.26458)" d="m4 46.969v2.0312c0 6.6479 5.8957 12 12.544 12h30.961c6.6479 0 12.495-5.3521 12.495-12v-1.9922c-0.021173 7.1849-5.81 12.963-13 12.963h-29.998c-7.2032 0-13.002-5.7987-13.002-13.002z" color="#000000" color-rendering="auto" dominant-baseline="auto" image-rendering="auto" opacity=".03" solid-color="#000000" stop-color="#000000" style="font-feature-settings:normal;font-variant-alternates:normal;font-variant-caps:normal;font-variant-east-asian:normal;font-variant-ligatures:normal;font-variant-numeric:normal;font-variant-position:normal;font-variation-settings:normal;inline-size:0;isolation:auto;mix-blend-mode:normal;shape-margin:0;shape-padding:0;text-decoration-color:#000000;text-decoration-line:none;text-decoration-style:solid;text-indent:0;text-orientation:mixed;text-transform:none;white-space:normal"/>
   <path d="m1.0583 11.906v0.59234c0 1.9386 1.5729 3.4993 3.3318 3.4993h8.1603c1.7589 0 3.3243-1.5608 3.3243-3.4993v-0.58095c-0.0056 2.0952-1.5372 3.7801-3.4395 3.7801h-7.9368c-1.9058 0-3.44-1.691-3.44-3.7915z" color="#000000" color-rendering="auto" dominant-baseline="auto" image-rendering="auto" opacity=".05" solid-color="#000000" stop-color="#000000" style="font-feature-settings:normal;font-variant-alternates:normal;font-variant-caps:normal;font-variant-east-asian:normal;font-variant-ligatures:normal;font-variant-numeric:normal;font-variant-position:normal;font-variation-settings:normal;inline-size:0;isolation:auto;mix-blend-mode:normal;shape-margin:0;shape-padding:0;text-decoration-color:#000000;text-decoration-line:none;text-decoration-style:solid;text-indent:0;text-orientation:mixed;text-transform:none;white-space:normal"/>
  </g>
 </g>
 <rect x="1.0583" y="1.0583" width="14.816" height="14.816" rx="3.4399" ry="3.4399" fill="url(#linearGradient862-3)" stroke-width=".99996"/>
 <rect transform="matrix(.26458 0 0 .26458 -.042436 -.04234)" x="15.16" y="15.16" width="34" height="34" ry="5" fill="#303030" fill-rule="evenodd" filter="url(#h)" opacity=".5" style="paint-order:stroke fill markers"/>
 <g stroke-width=".26458">
  <rect x="3.9687" y="3.9687" width="8.9957" height="8.9957" ry="1.3229" fill="url(#g)" fill-rule="evenodd" style="paint-order:stroke fill markers"/>
  <path d="m5.027 11.02h3.1059v0.62118h-3.1059z" fill="#f9f9f9"/>
  <path d="m5.6482 5.4292v3.4165h0.62118v-1.2424l0.49683-6.212e-4 0.74554 1.243h0.62118l-0.77648-1.2945c0.4791-0.11339 0.77648-0.42761 0.77648-1.0197v-0.015166c0-0.69164-0.33726-1.0871-1.1411-1.0871zm2.7953 0v3.4165h0.93178l0.48287-0.0054c0.60143-0.00716 1.3807-0.61035 1.3807-1.6949v-0.01583c0-1.074-0.64815-1.7004-1.4517-1.7004zm-2.1741 0.62118h0.62118c0.37386 0 0.62118 0.12153 0.62118 0.458v0.015771c0 0.2804-0.24732 0.45837-0.62118 0.458l-0.62118-7.1e-6zm2.7953 1.46e-5h0.62118c0.37395 0 0.93178 0.31575 0.93178 1.0792v0.015772c0 0.77394-0.55792 1.0792-0.93178 1.0792h-0.62118z" fill="#f9f9f9"/>
 </g>
</svg>

<?xml version="1.0" encoding="UTF-8" standalone="no"?>
<svg
   xmlns:dc="http://purl.org/dc/elements/1.1/"
   xmlns:cc="http://creativecommons.org/ns#"
   xmlns:rdf="http://www.w3.org/1999/02/22-rdf-syntax-ns#"
   xmlns:svg="http://www.w3.org/2000/svg"
   xmlns="http://www.w3.org/2000/svg"
   xmlns:xlink="http://www.w3.org/1999/xlink"
   xmlns:sodipodi="http://sodipodi.sourceforge.net/DTD/sodipodi-0.dtd"
   xmlns:inkscape="http://www.inkscape.org/namespaces/inkscape"
   inkscape:version="1.0 (4035a4fb49, 2020-05-01)"
   sodipodi:docname="rider.svg"
   id="svg43"
   viewBox="0 0 16.933 16.933"
   version="1.1"
   height="64"
   width="64">
  <metadata
     id="metadata47">
    <rdf:RDF>
      <cc:Work
         rdf:about="">
        <dc:format>image/svg+xml</dc:format>
        <dc:type
           rdf:resource="http://purl.org/dc/dcmitype/StillImage" />
        <dc:title></dc:title>
      </cc:Work>
    </rdf:RDF>
  </metadata>
  <sodipodi:namedview
     inkscape:current-layer="svg43"
     inkscape:window-maximized="1"
     inkscape:window-y="0"
     inkscape:window-x="0"
     inkscape:cy="28.418284"
     inkscape:cx="32.618554"
     inkscape:zoom="4.5078057"
     showgrid="false"
     id="namedview45"
     inkscape:window-height="985"
     inkscape:window-width="1920"
     inkscape:pageshadow="2"
     inkscape:pageopacity="0"
     guidetolerance="10"
     gridtolerance="10"
     objecttolerance="10"
     borderopacity="1"
     bordercolor="#666666"
     pagecolor="#ffffff" />
  <defs
     id="defs15">
    <filter
       color-interpolation-filters="sRGB"
       height="1.12"
       width="1.12"
       y="-.06"
       x="-.06"
       id="h">
      <feGaussianBlur
         id="feGaussianBlur2"
         stdDeviation="0.85" />
    </filter>
    <linearGradient
       gradientUnits="userSpaceOnUse"
       gradientTransform="scale(0.26458)"
       y2="49"
       y1="15"
       x2="32"
       x1="32"
       id="g">
      <stop
         id="stop5"
         offset="0"
         stop-color="#303030" />
      <stop
         id="stop7"
         offset="1"
         stop-color="#424242" />
    </linearGradient>
    <linearGradient
       gradientUnits="userSpaceOnUse"
       gradientTransform="matrix(0.99996,0,0,0.99996,21.135733,0.0083453)"
       y2="1.852"
       y1="15.081"
       x2="7.9373"
       x1="7.9373"
       id="linearGradient862-3">
      <stop
         id="stop10"
         offset="0"
         stop-color="#d42b92" />
      <stop
         id="stop12"
         offset="1"
         stop-color="#f66" />
    </linearGradient>
    <style
       type="text/css"
       id="style829" />
    <style
       type="text/css"
       id="style831" />
    <style
       type="text/css"
       id="style833" />
    <filter
       id="filter2761"
       x="-.024"
       y="-.024"
       width="1.048"
       height="1.048"
       color-interpolation-filters="sRGB">
      <feGaussianBlur
         stdDeviation="0.14552168"
         id="feGaussianBlur835" />
    </filter>
    <linearGradient
       id="linearGradient1024-6"
       x1="1.3315"
       x2="15.65"
       y1="15.576"
       y2="1.17"
       gradientTransform="translate(-5.4966104e-4,0.1405095)"
       gradientUnits="userSpaceOnUse">
      <stop
         stop-color="#00dc96"
         offset="0"
         id="stop838" />
      <stop
         stop-color="#14d29b"
         offset="1"
         id="stop840" />
    </linearGradient>
    <filter
       id="filter11290"
       x="-.024"
       y="-.024"
       width="1.048"
       height="1.048"
       color-interpolation-filters="sRGB">
      <feGaussianBlur
         stdDeviation="0.15875313"
         id="feGaussianBlur847" />
    </filter>
    <linearGradient
       id="linearGradient1005"
       x1=".73911"
       x2="16.388"
       y1="16.296"
       y2=".64687"
       gradientTransform="translate(27.06349,0.0065)"
       gradientUnits="userSpaceOnUse">
      <stop
         stop-color="#00dc96"
         offset="0"
         id="stop850" />
      <stop
         stop-color="#14d29b"
         offset="1"
         id="stop852" />
    </linearGradient>
    <filter
       id="h-36"
       x="-.06"
       y="-.06"
       width="1.12"
       height="1.12"
       color-interpolation-filters="sRGB">
      <feGaussianBlur
         stdDeviation="0.85"
         id="feGaussianBlur875" />
    </filter>
    <linearGradient
       id="g-7"
       x1="32"
       x2="32"
       y1="15"
       y2="49"
       gradientTransform="matrix(0.26458,0,0,0.26458,-25.184854,-0.26461)"
       gradientUnits="userSpaceOnUse">
      <stop
         stop-color="#303030"
         offset="0"
         id="stop878" />
      <stop
         stop-color="#424242"
         offset="1"
         id="stop880" />
    </linearGradient>
    <linearGradient
       id="linearGradient862-3-5"
       x1="7.9373"
       x2="7.9373"
       y1="15.081"
       y2="1.852"
       gradientTransform="matrix(0.99996,0,0,0.99996,-25.184816,-0.2562647)"
       gradientUnits="userSpaceOnUse">
      <stop
         stop-color="#33db7f"
         offset="0"
         id="stop883" />
      <stop
         stop-color="#addf4f"
         offset="1"
         id="stop885" />
    </linearGradient>
    <filter
       color-interpolation-filters="sRGB"
       height="1.12"
       width="1.12"
       y="-.06"
       x="-.06"
       id="h-3">
      <feGaussianBlur
         id="feGaussianBlur2-3"
         stdDeviation="0.85" />
    </filter>
    <linearGradient
       gradientUnits="userSpaceOnUse"
       gradientTransform="matrix(0.26458,0,0,0.26458,27.77228,0)"
       y2="49"
       y1="15"
       x2="32"
       x1="32"
       id="g-6">
      <stop
         id="stop5-5"
         offset="0"
         stop-color="#303030" />
      <stop
         id="stop7-6"
         offset="1"
         stop-color="#424242" />
    </linearGradient>
    <linearGradient
       gradientUnits="userSpaceOnUse"
       gradientTransform="translate(1138.9723)"
       y2="2.0085"
       y1="14.87"
       x2="7.6938"
       x1="7.6938"
       id="linearGradient912">
      <stop
         id="stop10-2"
         offset="0"
         stop-color="#3aea62" />
      <stop
         id="stop12-9"
         offset="1"
         stop-color="#b763fd" />
    </linearGradient>
    <linearGradient
       id="linearGradient968"
       inkscape:collect="always">
      <stop
         id="stop964"
         offset="0"
         style="stop-color:#d42b92;stop-opacity:1" />
      <stop
         id="stop966"
         offset="1"
         style="stop-color:#ff6666;stop-opacity:1" />
    </linearGradient>
    <filter
       color-interpolation-filters="sRGB"
       height="1.096"
       width="1.096"
       y="-0.048"
       x="-0.048"
       id="filter975">
      <feGaussianBlur
         id="feGaussianBlur4"
         stdDeviation="0.56" />
    </filter>
    <linearGradient
       gradientTransform="matrix(1.9551617,0,0,1.9551617,83.274371,-1.2377477)"
       gradientUnits="userSpaceOnUse"
       y2="5.0658998"
       y1="26.746"
       x2="12.552"
       x1="12.552"
       id="linearGradient882">
      <stop
         id="stop7-3"
         offset="0"
         stop-color="#0076b6" />
      <stop
         id="stop9"
         offset="1"
         stop-color="#1dc5ff" />
    </linearGradient>
    <linearGradient
       id="e"
       x1="100.01"
       x2="100.01"
       y1="15.314"
       y2="30.966"
       gradientUnits="userSpaceOnUse">
      <stop
         stop-color="#268bcf"
         offset="0"
         id="stop851" />
      <stop
         stop-color="#18bfe8"
         offset="1"
         id="stop853" />
    </linearGradient>
    <linearGradient
       id="d"
       x1="107.85"
       x2="107.85"
       y1="16.618"
       y2="45.308998"
       gradientUnits="userSpaceOnUse">
      <stop
         stop-color="#40a800"
         offset="0"
         id="stop856" />
      <stop
         stop-color="#7cd000"
         offset="1"
         id="stop858" />
    </linearGradient>
    <linearGradient
       id="c"
       x1="92.191002"
       x2="92.191002"
       y1="16.618"
       y2="45.308998"
       gradientUnits="userSpaceOnUse">
      <stop
         stop-color="#ec1f4b"
         offset="0"
         id="stop861" />
      <stop
         stop-color="#e94545"
         offset="1"
         id="stop863" />
    </linearGradient>
    <linearGradient
       id="a"
       x1="100.01"
       x2="100.01"
       y1="30.971001"
       y2="46.618"
       gradientUnits="userSpaceOnUse">
      <stop
         stop-color="#6534d2"
         offset="0"
         id="stop866" />
      <stop
         stop-color="#a553e5"
         offset="1"
         id="stop868" />
    </linearGradient>
    <filter
       id="f"
       x="-0.059999999"
       y="-0.059999999"
       width="1.12"
       height="1.12"
       color-interpolation-filters="sRGB">
      <feGaussianBlur
         stdDeviation="0.78260866"
         id="feGaussianBlur871" />
    </filter>
    <linearGradient
       id="linearGradient937"
       x1="2.5157001"
       x2="62.707001"
       y1="62.015999"
       y2="2.3713"
       gradientUnits="userSpaceOnUse">
      <stop
         stop-color="#1a1a1a"
         offset="0"
         id="stop874" />
      <stop
         stop-color="#4c4c4c"
         offset="1"
         id="stop876" />
    </linearGradient>
    <filter
       id="filter893"
       x="-0.027000001"
       y="-0.027000001"
       width="1.054"
       height="1.054"
       color-interpolation-filters="sRGB">
      <feGaussianBlur
         stdDeviation="0.675"
         id="feGaussianBlur879" />
    </filter>
    <linearGradient
       gradientTransform="matrix(0.26457812,0,0,0.26457812,4.7925726,0)"
       gradientUnits="userSpaceOnUse"
       y2="2.0652547"
       x2="15.281638"
       y1="61.692802"
       x1="15.281638"
       id="linearGradient970"
       xlink:href="#linearGradient968"
       inkscape:collect="always" />
    <linearGradient
       y2="49"
       x2="32"
       y1="15"
       x1="32"
       gradientTransform="scale(0.26458)"
       gradientUnits="userSpaceOnUse"
       id="linearGradient1116"
       xlink:href="#g"
       inkscape:collect="always" />
  </defs>
  <g
     style="fill:#5e4aa6"
     id="g885"
     transform="scale(0.26457812)">
    <circle
       cx="-1248.7"
       cy="-1241.6"
       r="0"
       id="circle845" />
    <circle
       style="fill-rule:evenodd"
       cx="-149.14999"
       cy="23.855"
       r="0"
       id="circle847" />
    <circle
       cx="-1150.9"
       cy="-1256.6"
       r="0"
       id="circle849" />
    <circle
       style="fill-rule:evenodd"
       cx="-51.327"
       cy="8.8744001"
       r="0"
       id="circle851" />
    <g
       style="stroke-width:0.26458"
       transform="matrix(3.7796,0,0,3.7796,167.86,4.61)"
       id="g883">
      <g
         transform="translate(-0.0272,0.0065001)"
         id="g861">
        <circle
           cx="-330.35001"
           cy="-328.38"
           r="0"
           id="circle853" />
        <circle
           cx="-312.10999"
           cy="-326.25"
           r="0"
           id="circle855" />
        <circle
           cx="-306.01999"
           cy="-333.07001"
           r="0"
           id="circle857" />
        <circle
           cx="-308.84"
           cy="-326.01001"
           r="0"
           id="circle859" />
      </g>
      <g
         transform="translate(-0.0272,0.0065001)"
         id="g871">
        <circle
           cx="-330.35001"
           cy="-328.38"
           r="0"
           id="circle863" />
        <circle
           cx="-312.10999"
           cy="-326.25"
           r="0"
           id="circle865" />
        <circle
           cx="-306.01999"
           cy="-333.07001"
           r="0"
           id="circle867" />
        <circle
           cx="-308.84"
           cy="-326.01001"
           r="0"
           id="circle869" />
      </g>
      <g
         transform="translate(-0.02705,0.0064503)"
         id="g881">
        <circle
           cx="-330.35001"
           cy="-328.38"
           r="0"
           id="circle873" />
        <circle
           cx="-312.10999"
           cy="-326.25"
           r="0"
           id="circle875" />
        <circle
           cx="-306.01999"
           cy="-333.07001"
           r="0"
           id="circle877" />
        <circle
           cx="-308.84"
           cy="-326.01001"
           r="0"
           id="circle879" />
      </g>
    </g>
  </g>
  <g
     style="fill:#5e4aa6;stroke-width:0.26458"
     id="g871-6"
     transform="translate(20.272995,-3.3482341)">
    <circle
       cx="-330.35001"
       cy="-328.38"
       r="0"
       id="circle863-7" />
    <circle
       cx="-312.10999"
       cy="-326.25"
       r="0"
       id="circle865-5" />
    <circle
       cx="-306.01999"
       cy="-333.07001"
       r="0"
       id="circle867-3" />
    <circle
       cx="-308.84"
       cy="-326.01001"
       r="0"
       id="circle869-5" />
  </g>
  <circle
     transform="scale(0.26457812)"
     cx="32"
     cy="32"
     r="30"
     filter="url(#filter893)"
     opacity="0.3"
     stroke-linecap="round"
     stroke-width="2.3495"
     id="circle884" />
  <circle
     style="fill:url(#linearGradient970);fill-opacity:1;stroke-width:0.732432;stroke-linecap:round"
     id="path962"
     cx="8.4665003"
     cy="8.4665003"
     r="7.9373436" />
  <g
     transform="translate(-21.135653,-5.279314e-5)"
     id="g1114">
    <rect
       id="rect1099"
       style="paint-order:stroke fill markers"
       opacity="0.5"
       filter="url(#h)"
       fill-rule="evenodd"
       fill="#303030"
       ry="5"
       height="34"
       width="34"
       y="15.16"
       x="15.16"
       transform="matrix(0.26458,0,0,0.26458,21.09326,-0.04234)" />
    <g
       transform="translate(21.135696)"
       id="g1107"
       stroke-width="0.26458">
      <rect
         id="rect1101"
         style="fill:url(#linearGradient1116);paint-order:stroke fill markers"
         fill-rule="evenodd"
         fill="url(#g)"
         ry="1.3229001"
         height="8.9956999"
         width="8.9956999"
         y="3.9686999"
         x="3.9686999" />
      <path
         id="path1103"
         fill="#f9f9f9"
         d="m 5.027,11.02 h 3.1059 v 0.62118 H 5.027 Z" />
      <path
         id="path1105"
         fill="#f9f9f9"
         d="M 5.6482,5.4292 V 8.8457 H 6.26938 V 7.6033 l 0.49683,-6.212e-4 0.74554,1.243 h 0.62118 l -0.77648,-1.2945 c 0.4791,-0.11339 0.77648,-0.42761 0.77648,-1.0197 v -0.015166 c 0,-0.69164 -0.33726,-1.0871 -1.1411,-1.0871 z m 2.7953,0 V 8.8457 H 9.37528 L 9.85815,8.8403 c 0.60143,-0.00716 1.3807,-0.61035 1.3807,-1.6949 V 7.12957 c 0,-1.074 -0.64815,-1.7004 -1.4517,-1.7004 z M 6.2694,6.05038 h 0.62118 c 0.37386,0 0.62118,0.12153 0.62118,0.458 v 0.015771 c 0,0.2804 -0.24732,0.45837 -0.62118,0.458 l -0.62118,-7.1e-6 z m 2.7953,1.46e-5 h 0.62118 c 0.37395,0 0.93178,0.31575 0.93178,1.0792 v 0.015772 c 0,0.77394 -0.55792,1.0792 -0.93178,1.0792 H 9.0647 Z" />
    </g>
  </g>
</svg>
